src/assets/icons/real-estate/house.svg

<svg width="48" height="48" viewBox="0 0 48 48" fill="none" xmlns="http://www.w3.org/2000/svg">
<rect width="48" height="48" fill="white"/>
<path fill-rule="evenodd" clip-rule="evenodd" d="M15 38V25.4141L24 16.4142L33 25.4141V38H15ZM13 21.4141L15.707 18.7072L18.707 15.7072L24 10.4142L35 21.4141V24.5861L34.708 24.2941L34.706 24.2921L24.707 14.2932C24.512 14.0982 24.256 14.0002 24 14.0002C23.744 14.0002 23.488 14.0982 23.293 14.2932L13.294 24.2921C13.293 24.2931 13.293 24.2931 13.292 24.2941L13 24.5861V21.4141ZM16 13.0002H17V14.5862L16 15.5862V13.0002ZM39 38C39.553 38 40 38.447 40 39C40 39.553 39.553 40 39 40H34H14H9C8.448 40 8 39.553 8 39C8 38.447 8.448 38 9 38H13V27.4141L12.707 27.7071C12.42 27.9931 11.99 28.0801 11.617 27.9241C11.244 27.7701 11 27.4041 11 27.0001V21.0001C11 20.7341 11.105 20.4802 11.293 20.2932L14 17.5862V12.0002C14 11.4472 14.448 11.0002 15 11.0002H18C18.552 11.0002 19 11.4472 19 12.0002V12.5862L23.293 8.29325C23.684 7.90225 24.316 7.90225 24.707 8.29325L36.707 20.2932C36.895 20.4802 37 20.7341 37 21.0001V27.0001C37 27.4041 36.757 27.7701 36.383 27.9241C36.259 27.9761 36.129 28.0001 36 28.0001C35.74 28.0001 35.484 27.8981 35.293 27.7071L35 27.4141V38H39ZM25.0001 32.0001V30.0001H27.0001V32.0001H25.0001ZM21.0001 32.0001V30.0001H23.0001V32.0001H21.0001ZM21.0001 28.0001V26.0001H23.0001V28.0001H21.0001ZM25.0001 28.0001V26.0001H27.0001V28.0001H25.0001ZM27.0001 24.0001H21.0001C19.8971 24.0001 19.0001 24.8971 19.0001 26.0001V32.0001C19.0001 33.1031 19.8971 34 21.0001 34H27.0001C28.1021 34 29.0001 33.1031 29.0001 32.0001V26.0001C29.0001 24.8971 28.1021 24.0001 27.0001 24.0001Z" fill="#253238"/>
</svg>

<svg width="48" height="48" viewBox="0 0 48 48" fill="none" xmlns="http://www.w3.org/2000/svg"><path fill-rule="evenodd" clip-rule="evenodd" d="M15 38V25.414l9-9 9 9V38H15zm-2-16.586l2.707-2.707 3-3L24 10.414l11 11v3.172l-.292-.292-.002-.002-9.999-9.999a.997.997 0 00-1.414 0l-9.999 10-.002.001-.292.292v-3.172zM16 13h1v1.586l-1 1V13zm23 25a1 1 0 110 2H9a1 1 0 110-2h4V27.414l-.293.293A.999.999 0 0111 27v-6c0-.266.105-.52.293-.707L14 17.586V12a1 1 0 011-1h3a1 1 0 011 1v.586l4.293-4.293a.999.999 0 011.414 0l12 12c.188.187.293.441.293.707v6a.999.999 0 01-1.707.707L35 27.414V38h4zm-14-6v-2h2v2h-2zm-4 0v-2h2v2h-2zm0-4v-2h2v2h-2zm4 0v-2h2v2h-2zm2-4h-6c-1.103 0-2 .897-2 2v6c0 1.103.897 2 2 2h6c1.102 0 2-.897 2-2v-6c0-1.103-.898-2-2-2z" fill="#253238"/></svg>
